actions/22/view-time-schedule-child-insert.svg

<svg xmlns="http://www.w3.org/2000/svg" viewBox="0 0 22 22">
  <defs id="defs3051">
<style type="text/css" id="current-color-scheme">.ColorScheme-Text {color:#fcfcfc;}</style>
  </defs>
 <path 
    style="fill:currentColor;fill-opacity:1;stroke:none" 
    d="M 3,3 V 13 H 4 V 7 h 14 v 2 h 1 V 3 H 17 V 5.0996094 H 15 V 3 H 7 V 5.0996094 H 5 V 3 Z m 8,8 v 6 c 0,0 0,2 2,2 2,0 2,0 4,0 2,0 2,-2 2,-2 v -6 h -1 v 1 h -1 v -1 h -4 v 1 h -1 v -1 z m 1,2 h 6 v 4 c 0,0 0,1 -1,1 -1,0 -3,0 -4,0 -1,0 -1,-0.938603 -1,-0.938603 z m -7,1 v 2 H 3 v 1 h 2 v 2 H 6 V 17 H 8 V 16 H 6 v -2 z m 8,0 v 1 1 1 h 1 v -1 h 2 v 1 h 1 v -3 h -1 v 1 h -2 v -1 z"
	class="ColorScheme-Text"
    />  
</svg>

<svg xmlns="http://www.w3.org/2000/svg" viewBox="0 0 22 22">
  <defs id="defs3051">
    <style type="text/css" id="current-color-scheme">
      .ColorScheme-Text {
        color:#eff0f1;
      }
      </style>
  </defs>
 <path 
    style="fill:currentColor;fill-opacity:1;stroke:none" 
    d="M 3 3 L 3 13 L 4 13 L 4 7 L 18 7 L 18 9 L 19 9 L 19 3 L 17 3 L 17 5.0996094 L 15 5.0996094 L 15 3 L 7 3 L 7 5.0996094 L 5 5.0996094 L 5 3 L 3 3 z M 11 11 L 11 19 L 19 19 L 19 11 L 18 11 L 18 12 L 17 12 L 17 11 L 13 11 L 13 12 L 12 12 L 12 11 L 11 11 z M 12 13 L 18 13 L 18 18 L 12 18 L 12 13 z M 5 14 L 5 16 L 3 16 L 3 17 L 5 17 L 5 19 L 6 19 L 6 17 L 8 17 L 8 16 L 6 16 L 6 14 L 5 14 z M 13 14 L 13 15 L 13 16 L 13 17 L 14 17 L 14 16 L 16 16 L 16 17 L 17 17 L 17 14 L 16 14 L 16 15 L 14 15 L 14 14 L 13 14 z "
	class="ColorScheme-Text"
    />  
</svg>
